__todo__/php-alt.svg

<svg height="258" preserveAspectRatio="xMidYMid" viewBox="0 0 512 258" width="512" xmlns="http://www.w3.org/2000/svg"><path d="m116.447824 54.1156555c22.286691.1871035 38.436389 6.6127696 48.449095 19.2663067 10.012706 12.6535372 13.316418 29.9365478 9.916481 51.8490308-1.320415 10.012706-4.24992 19.832963-8.783169 29.466117-4.346145 9.633153-10.386913 18.320098-18.132994 26.066179-9.44605 9.820257-19.549635 16.053474-30.316101 18.699651-10.766465 2.646177-21.9124833 3.966592-33.4327083 3.966592h-33.9993647l-10.7664655 53.832328h-39.3825975l40.5159096-203.1462045zm335.89341 0c22.28669.1871035 38.436389 6.6127696 48.449095 19.2663067 10.012706 12.6535372 13.316417 29.9365478 9.916481 51.8490308-1.320416 10.012706-4.249921 19.832963-8.783169 29.466117-4.346146 9.633153-10.386913 18.320098-18.132995 26.066179-9.44605 9.820257-19.549635 16.053474-30.3161 18.699651-10.766466 2.646177-21.912484 3.966592-33.432709 3.966592h-33.999364l-10.766466 53.832328h-39.382597l40.515909-203.1462045zm-193.566509-54.1156555-11.049794 54.1156555h35.132677c19.266307.3795527 33.619812 4.3461453 43.065862 11.8997777 9.633153 7.5536324 12.466434 21.9124837 8.499841 43.0658618l-18.982978 94.348237h-39.665926l18.132995-90.098316c1.887071-9.44605 1.320415-16.1496985-1.699969-20.116291-3.020383-3.9665926-9.536928-5.9498888-19.549634-5.9498888l-31.449413-.2833281-23.232899 116.4478239h-39.099269l40.799237-203.429532zm-172.926329 86.415052c-2.2666244.1871035-4.4370241.2833281-6.5165449.2833281l-5.7238511-.0003801-16.9423921 84.715464c1.1333122.187103 2.2666243.283328 3.3999365.283328h3.9665925c18.1329946.187103 33.2456053-1.603744 45.3324861-5.383233 12.086881-3.966592 20.212516-17.753442 24.366212-41.365894 3.399936-19.832962 0-31.2623085-10.19981-34.2826924-10.012706-3.0203838-22.570018-4.437024-37.682629-4.2499206zm335.893409 0c-2.266624.1871035-4.437024.2833281-6.516544.2833281l-5.724261-.0003801-16.941983 84.715464c1.133313.187103 2.266625.283328 3.399937.283328h3.966592c18.132995.187103 33.245606-1.603744 45.332487-5.383233 12.086881-3.966592 20.212515-17.753442 24.366211-41.365894 3.399937-19.832962 0-31.2623085-10.199809-34.2826924-10.012706-3.0203838-22.570019-4.437024-37.68263-4.2499206z"/></svg>

<?xml version="1.0" encoding="UTF-8"?>
<svg width="512px" height="258px" viewBox="0 0 512 258" version="1.1" xmlns="http://www.w3.org/2000/svg" xmlns:xlink="http://www.w3.org/1999/xlink" preserveAspectRatio="xMidYMid">
    <g>
        <path d="M116.447824,54.1156555 C138.734515,54.302759 154.884213,60.7284251 164.896919,73.3819622 C174.909625,86.0354994 178.213337,103.31851 174.8134,125.230993 C173.492985,135.243699 170.56348,145.063956 166.030231,154.69711 C161.684086,164.330263 155.643318,173.017208 147.897237,180.763289 C138.451187,190.583546 128.347602,196.816763 117.581136,199.46294 C106.814671,202.109117 95.6686527,203.429532 84.1484277,203.429532 L50.149063,203.429532 L39.3825975,257.26186 L0,257.26186 L40.5159096,54.1156555 L116.447824,54.1156555 Z M452.341234,54.1156555 C474.627924,54.302759 490.777623,60.7284251 500.790329,73.3819622 C510.803035,86.0354994 514.106746,103.31851 510.70681,125.230993 C509.386394,135.243699 506.456889,145.063956 501.923641,154.69711 C497.577495,164.330263 491.536728,173.017208 483.790646,180.763289 C474.344596,190.583546 464.241011,196.816763 453.474546,199.46294 C442.70808,202.109117 431.562062,203.429532 420.041837,203.429532 L386.042473,203.429532 L375.276007,257.26186 L335.89341,257.26186 L376.409319,54.1156555 L452.341234,54.1156555 Z M258.774725,0 L247.724931,54.1156555 L282.857608,54.1156555 C302.123915,54.4952082 316.47742,58.4618008 325.92347,66.0154332 C335.556623,73.5690656 338.389904,87.9279169 334.423311,109.081295 L315.440333,203.429532 L275.774407,203.429532 L293.907402,113.331216 C295.794473,103.885166 295.227817,97.1815175 292.207433,93.214925 C289.18705,89.2483324 282.670505,87.2650362 272.657799,87.2650362 L241.208386,86.9817081 L217.975487,203.429532 L178.876218,203.429532 L219.675455,0 L258.774725,0 Z M85.848396,86.415052 C83.5817716,86.6021555 81.4113719,86.6983801 79.3318511,86.6983801 L73.608,86.698 L56.6656079,171.413464 C57.7989201,171.600567 58.9322322,171.696792 60.0655444,171.696792 L64.0321369,171.696792 L64.0321369,171.696792 C82.1651315,171.883895 97.2777422,170.093048 109.364623,166.313559 C121.451504,162.346967 129.577139,148.560117 133.730835,124.947665 C137.130771,105.114703 133.730835,93.6853565 123.531025,90.6649726 C113.518319,87.6445888 100.961007,86.2279486 85.848396,86.415052 Z M421.741805,86.415052 C419.475181,86.6021555 417.304781,86.6983801 415.225261,86.6983801 L409.501,86.698 L392.559017,171.413464 C393.69233,171.600567 394.825642,171.696792 395.958954,171.696792 L399.925546,171.696792 L399.925546,171.696792 C418.058541,171.883895 433.171152,170.093048 445.258033,166.313559 C457.344914,162.346967 465.470548,148.560117 469.624244,124.947665 C473.024181,105.114703 469.624244,93.6853565 459.424435,90.6649726 C449.411729,87.6445888 436.854416,86.2279486 421.741805,86.415052 Z" fill="#000000"></path>
    </g>
</svg>
